X:1
T:Title
%%score { ( 1 3 5 ) | ( 2 4 6 ) }
L:1/8
M:3/4
K:Eb
V:1 treble nm="Grand Piano"
V:3 treble 
V:5 treble 
V:2 bass 
V:4 bass 
V:6 bass 
V:1
 z2 z2[Q:1/4=100] [GB]>[GB] | [GB]3 G E>[Ac] | [GB]2 G2 G>G | [EG]3 [DF] B,>F | E4 B>B | %5
 [Ge]3 d c>e | [GB]2 G2 B>B | d3 c B>=A | B2- [DAB]2 [GB]>[GB] | [GB]3 G E>[Ac] | [GB]2 G2 G>G | %11
 c3 [Ec] [G,E]>[CF] | [B,DG]4 G>G | F3 G A>[Ac] | [GB]2 [EG]2 [Ge]>[EG] | [DB]3 [FA] [EG]>[DF] | %16
[M:2/4] E4 |[M:1/4] B>e |[M:3/4] [Ad]4 z2 | [GB]4 z2 | [GB]4 z2 | [DF]4 z2 | E3 F z2 | %23
 [EGB][B,EG] [Ge]2 G>c | B->[EB-] [DB][DB] [DB][DB] |[M:2/4] [EB]4 |] %26
V:2
 z2 z2 [E,E]>[E,E] | [E,E]3 [E,B,E] [E,G,]>[E,E] | [E,E]2 [E,B,E]2 [E,B,E]>[E,B,E] | %3
 [B,,B,]3 [B,,A,] [B,,A,]>[B,,A,B,] | [E,G,B,]4 [E,G,E]>[E,G,E] | [E,B,]3 [E,B,E] [E,A,E]>[E,CE] | %6
 [E,E]2 [E,B,E]2 [G,B,E]>[G,B,E] | [F,B,F]3 [F,E] [F,D]>[F,C] | F,2 z2 [E,E]>[E,E] | %9
 [E,E]3 [E,B,E] [E,G,]>[E,E] | [E,E]2 [E,B,E]2 [E,G,E]>[E,G,E] | [E,G,E]3 [C,G,] C,>C, | %12
 G,,4 [G,B,D]>[G,B,D] | [A,B,D]3 [G,B,E] [F,B,D]>[D,B,] | [E,E]2 [E,B,]2 [E,B,]>[E,B,] | %15
 [B,,B,]3 [B,,B,] [B,,B,]>[B,,A,] |[M:2/4] [E,G,]4 |[M:1/4][K:treble] G>G | %18
[M:3/4][K:bass] [B,,B,]>B,, z D [B,,B,]2 | [E,B,]>E, E,2[K:treble] E>A | E,>E, z E z z/ E/ | %21
 B,,>B,, B,,2 E>D | z2 z D z2 | E,E, [E,B,]2 z2 | [B,,G,]>[B,,G,] [B,,F,][B,,F,] [B,,A,][B,,A,] | %25
[M:2/4] [E,G,]4 |] %26
V:3
 x6 | x6 | x6 | x6 | x6 | x6 | x6 | x6 | D2 z2 z2 | x6 | x6 | x6 | x6 | x6 | x6 | x6 |[M:2/4] x4 | %17
[M:1/4] x2 |[M:3/4] z z/ B,/ z A [Ad]>[Ac] | z z/ E/ E2 G>c | E>E z G E>G | B,>B, B,2 G>F | %22
 z z/ G,/ z z/ A,/ [B,EG]>[B,FA] | x6 | E2 z2 z2 |[M:2/4] x4 |] %26
V:4
 x6 | x6 | x6 | x6 | x6 | x6 | x6 | x6 | B,,4 z2 | x6 | x6 | x6 | x6 | x6 | x6 | x6 |[M:2/4] x4 | %17
[M:1/4][K:treble] x2 |[M:3/4][K:bass] z2 B,,2 z2 | x4[K:treble] x2 | z2 E,2 [E,G,]2 | x6 | %22
 [E,G,]>E, z z/ E,/ E,>E, | x6 | x6 |[M:2/4] x4 |] %26
V:5
 x6 | x6 | x6 | x6 | x6 | x6 | x6 | x6 | x6 | x6 | x6 | x6 | x6 | x6 | x6 | x6 |[M:2/4] x4 | %17
[M:1/4] x2 |[M:3/4] z2 B,2 z2 | x6 | z2 B,2 z2 | x6 | z2 G,2 z2 | x6 | x6 |[M:2/4] x4 |] %26
V:6
 x6 | x6 | x6 | x6 | x6 | x6 | x6 | x6 | x6 | x6 | x6 | x6 | x6 | x6 | x6 | x6 |[M:2/4] x4 | %17
[M:1/4][K:treble] x2 |[M:3/4][K:bass] x6 | x4[K:treble] x2 | x6 | x6 | z2 E,2 z2 | x6 | x6 | %25
[M:2/4] x4 |] %26

